icon-themes/sifr_svg/cmd/sc_exportto.svg

<svg viewBox="0 0 16 16" xmlns="http://www.w3.org/2000/svg"><path d="m1 1v14h9v-2h-7v-10h5v3h3 2v-1l-4-4zm10 6v1c0 .2653.0931.53058.28125.71875l.28125.28125h-5.5625v2h5.5625l-.28125.28125c-.18811.18818-.28129.45344-.28125.71875v1h1c.26529 0 .53057-.09304.71875-.28125l2-2 .28125-.28125v-.875l-.28125-.28125-2-2c-.18817-.18814-.45344-.28125-.71875-.28125z" fill="#555753"/></svg>

<svg xmlns="http://www.w3.org/2000/svg" viewBox="0 0 16 16">
  <path
     style="fill:#555753"
     d="M 1 1 L 1 15 L 10 15 L 10 13 L 3 13 L 3 3 L 8 3 L 8 6 L 11 6 L 13 6 L 13 5 L 9 1 L 1 1 z M 11 7 L 11 8 C 11 8.2653 11.0931 8.53058 11.28125 8.71875 L 11.5625 9 L 6 9 L 6 11 L 11.5625 11 L 11.28125 11.28125 C 11.09314 11.46943 10.99996 11.73469 11 12 L 11 13 L 12 13 C 12.26529 13 12.53057 12.90696 12.71875 12.71875 L 14.71875 10.71875 L 15 10.4375 L 15 9.5625 L 14.71875 9.28125 L 12.71875 7.28125 C 12.53058 7.09311 12.26531 7 12 7 L 11 7 z "
     />
</svg>
